src/icons/download.svg

<svg xmlns="http://www.w3.org/2000/svg" width="24" height="24" fill="none"><path fill="currentColor" d="M11 1h2v12l3-3 1.5 1.5L12 17l-5.5-5.5L8 10l3 3z"/><path fill="currentColor" d="M4 15H2v6h20v-6h-2v4H4z"/></svg>

<svg width="24" height="24" viewBox="0 0 24 24" fill="none" xmlns="http://www.w3.org/2000/svg">
<path d="M11 1H13V13L16 10L17.5 11.5L12 17L6.5 11.5L8 10L11 13V1Z" fill="black"/>
<path d="M4 15H2V21H22V15H20V19H4L4 15Z" fill="black"/>
</svg>
